!!!SOCIAL_FUNCTION:	children's songs
!!!PDT:	1918

Specific Region: Dakotas, Minnesota, Montana, Nebraska
!!!REG: Dakotas and Montana
!!!LING_GROUP: Siouan
!!!LANG: Tone
!!!OTL@ENG: Song of Little Girl's Play (a)
!!!ONM: No. 215
**kern
*Ifeme
*clefG2
*k[b-e-a-]
*M3/4
*>[A,B,B]
*>norep[A,B]
*>A
*MM76
4g
16g
8f
16e-
4e-
=2
4g
16g
8f
16e-
4e-
=3||
*M2/4
8f
8f
8f
8e-
=4
4c
4A-
=5||
*M3/4
16c
16c
16d
16d
16c
16c
16c
16c
4A-
=6||
*M2/4
16c
16c
16d
16d
16c
16c
16c
16c
*>B
=7!|:
*M3/4
4g
16g
8f
16e-
4e-
=8||
*M2/4
4f
16f
8e-
16e-
=9
4c
4A-
=10||
*M3/4
8c
8c
8d
8c
4c
=11||
*M2/4
4c
8.d
16c
=12
4c
4c
==:|!
*-
!!!CNT: Native American -- Sioux
!!!MRD: 1911/07//-1914///
!!!OCL: Frances Densmore
!!!YOR1: Teton Sioux Music, Bulletin 61,
!!!YOR2: Bureau of American Ethnology, Smithsonian Institution
!!!PPR: Government Printing Office
!!!PPP: Washington, D.C.
!!!PDT: 1918///
!!!ENC: Craig Stuart Sapp
!!!END: 2002/03/25/
!!!EEV: 2002/03/31/
!!!AGN: Children's Song
!!!MPN@@SIO: Pahhi'wing
!!!MPN@ENG: Yellow Hair
!!!TXO: Teton Sioux
!!!MLC: Standing Rock Reservation, South Dakota, United States of America
!!!ARL: 45.9/-100.7#
!!!catalog: Catalogue No. 680
!!!PPG: 492
!!!EFL: 220/245
!!!VTS: 2627582275
